X: 1
T: Rich in Love
C: by Andrea Hoag
R: polska
S: Transcribed by Andrea Hoag and Bruc
Z: 2022 John Chambers <jc:trillian.mit.edu>
N: Chords by JC
M: 2/4
L: 1/16
K: G
"^A"|: D2 |\
"G"G3A B2d2 "Am"c2A2 | "D"F3G ABAF "G"G2AB | "C"c3B c2B2 "Am"c2ec | "D"d4 A6 B2 |
"C"c3B c2d2 "D7"e2c2 | "G"B3c BAGF "Em"G2AB | "Am"c4  c2B2 "(D)"A2G2 |1,3 "D7"FGAF D6 :|3,4 "D7"F2EF "G"G6 :|
"^B"|: B2 |\
"C"c3B c2d2 "D"e2f2 | "G"g4 d6 B2 | "C"c3d c2B2 "Am"`A2G2 | "D'7"FGAF D6 B2 |
"C"c3B c2d2 "D"e2f2 | "G"g4 d6 B2 | "Am"c3d c2B2 "D"A2G2 | "D7"F2EF "G"G6 :|
